X:230 
T:Young Mollie Murphy* (polka) 
F:file ID: cre.5/230young
B:CRE5.106 (gan ainm)
N:1:Yes, this is a polka version of "Auld Lang Syne". I named it
for Breathnach's source.
N:2:I have changed the key signature to A and made the
final notes of each part A's instead of the D's in the
CRE version.
L:1/8
M:2/4
Q:120
R:polka
K:A
A>B Ac|B>A Bc|A>c Ac|ea a2|
A>B Ac|B>A Bc|AF EF|A2 A2:|
eA Ac|B>A Bc|eA Ac|ea a/b/a/f/|
eA Ac|B>A Bc|AF EF|A2 A2:|

%%%

